_includes/icons/color-rest-api.svg

<svg fill="#666" height="50" viewBox="0 0 48 48" width="50" xmlns="http://www.w3.org/2000/svg"><path d="m44 21.777344-8.820312-2.410156 4.535156-7.9375-3.144531-3.144532-7.59375 4.335938-2.753907-8.621094h-4.445312l-2.640625 8.265625-7.707031-3.980469-3.144532 3.144532 3.980469 7.710937-8.265625 2.636719v4.445312l8.261719 2.636719-3.976563 7.710938 3.144532 3.144531 7.707031-3.980469 2.640625 8.265625h4.445312l2.636719-8.265625 7.710938 3.980469 3.140625-3.144531-4.148438-8.042969 8.4375-2.304688zm-20 11.113281c-4.910156 0-8.890625-3.980469-8.890625-8.890625s3.980469-8.890625 8.890625-8.890625 8.890625 3.980469 8.890625 8.890625-3.980469 8.890625-8.890625 8.890625z" fill="#455a64"/><path d="m24 9c-8.285156 0-15 6.714844-15 15s6.714844 15 15 15 15-6.714844 15-15-6.714844-15-15-15z" fill="#78909c"/><path d="m19.320313 26.953125h-2.742188l-.53125 2.046875h-2.125l3.109375-10h1.835938l3.132812 10h-2.144531zm-2.304688-1.679687h1.859375l-.929687-3.566407zm15.984375 3.726562h-2v-10h2zm-7.988281-3.515625v3.515625h-2.011719v-10h3.390625c.984375 0 1.769531.304688 2.355469.921875.585937.613281.878906 1.410156.878906 2.386719 0 .980469-.289062 1.753906-.867187 2.324219-.582032.566406-1.382813.851562-2.40625.851562zm0-1.683594h1.378906c.382813 0 .679688-.125.890625-.378906.207031-.25.3125-.617187.3125-1.097656 0-.5-.109375-.894531-.320312-1.191406-.214844-.296875-.503907-.445313-.863282-.449219h-1.398437z" fill="#fff"/></svg>

<svg xmlns="http://www.w3.org/2000/svg" viewBox="0 0 48 48" width="50" height="50" fill="#666"><path d="M 44 21.777344 L 35.179688 19.367188 L 39.714844 11.429688 L 36.570313 8.285156 L 28.976563 12.621094 L 26.222656 4 L 21.777344 4 L 19.136719 12.265625 L 11.429688 8.285156 L 8.285156 11.429688 L 12.265625 19.140625 L 4 21.777344 L 4 26.222656 L 12.261719 28.859375 L 8.285156 36.570313 L 11.429688 39.714844 L 19.136719 35.734375 L 21.777344 44 L 26.222656 44 L 28.859375 35.734375 L 36.570313 39.714844 L 39.710938 36.570313 L 35.5625 28.527344 L 44 26.222656 Z M 24 32.890625 C 19.089844 32.890625 15.109375 28.910156 15.109375 24 C 15.109375 19.089844 19.089844 15.109375 24 15.109375 C 28.910156 15.109375 32.890625 19.089844 32.890625 24 C 32.890625 28.910156 28.910156 32.890625 24 32.890625 Z" fill="#455a64"/><path d="M 24 9 C 15.714844 9 9 15.714844 9 24 C 9 32.285156 15.714844 39 24 39 C 32.285156 39 39 32.285156 39 24 C 39 15.714844 32.285156 9 24 9 Z" fill="#78909c"/><path d="M 19.320313 26.953125 L 16.578125 26.953125 L 16.046875 29 L 13.921875 29 L 17.03125 19 L 18.867188 19 L 22 29 L 19.855469 29 Z M 17.015625 25.273438 L 18.875 25.273438 L 17.945313 21.707031 Z M 33 29 L 31 29 L 31 19 L 33 19 Z M 25.011719 25.484375 L 25.011719 29 L 23 29 L 23 19 L 26.390625 19 C 27.375 19 28.160156 19.304688 28.746094 19.921875 C 29.332031 20.535156 29.625 21.332031 29.625 22.308594 C 29.625 23.289063 29.335938 24.0625 28.757813 24.632813 C 28.175781 25.199219 27.375 25.484375 26.351563 25.484375 Z M 25.011719 23.800781 L 26.390625 23.800781 C 26.773438 23.800781 27.070313 23.675781 27.28125 23.421875 C 27.488281 23.171875 27.59375 22.804688 27.59375 22.324219 C 27.59375 21.824219 27.484375 21.429688 27.273438 21.132813 C 27.058594 20.835938 26.769531 20.6875 26.410156 20.683594 L 25.011719 20.683594 Z" fill="#fff"/></svg>
